elementary-icon-theme/elementary/panel/22/ubuntuone-client-updating.svg

<?xml version="1.0" encoding="UTF-8" standalone="no"?>
<!-- Created with Inkscape (http://www.inkscape.org/) -->

<svg
   xmlns:dc="http://purl.org/dc/elements/1.1/"
   xmlns:cc="http://creativecommons.org/ns#"
   xmlns:rdf="http://www.w3.org/1999/02/22-rdf-syntax-ns#"
   xmlns:svg="http://www.w3.org/2000/svg"
   xmlns="http://www.w3.org/2000/svg"
   xmlns:xlink="http://www.w3.org/1999/xlink"
   xmlns:sodipodi="http://sodipodi.sourceforge.net/DTD/sodipodi-0.dtd"
   xmlns:inkscape="http://www.inkscape.org/namespaces/inkscape"
   version="1.0"
   width="22"
   height="22"
   id="svg3231"
   sodipodi:version="0.32"
   inkscape:version="0.48.0 r9654"
   sodipodi:docname="ubuntuone-client-updating.svg"
   inkscape:output_extension="org.inkscape.output.svg.inkscape">
  <metadata
     id="metadata12">
    <rdf:RDF>
      <cc:Work
         rdf:about="">
        <dc:format>image/svg+xml</dc:format>
        <dc:type
           rdf:resource="http://purl.org/dc/dcmitype/StillImage" />
      </cc:Work>
    </rdf:RDF>
  </metadata>
  <sodipodi:namedview
     inkscape:window-height="706"
     inkscape:window-width="685"
     inkscape:pageshadow="2"
     inkscape:pageopacity="0.0"
     guidetolerance="10.0"
     gridtolerance="10.0"
     objecttolerance="10.0"
     borderopacity="1.0"
     bordercolor="#666666"
     pagecolor="#ffffff"
     id="base"
     showgrid="false"
     inkscape:zoom="10.375"
     inkscape:cx="21.99382"
     inkscape:cy="14.024096"
     inkscape:window-x="399"
     inkscape:window-y="51"
     inkscape:current-layer="svg3231"
     inkscape:window-maximized="0" />
  <defs
     id="defs3233">
    <linearGradient
       id="linearGradient3587-6-5-3">
      <stop
         id="stop3589-9-2-2"
         style="stop-color:#000000;stop-opacity:1"
         offset="0" />
      <stop
         id="stop3591-7-4-73"
         style="stop-color:#363636;stop-opacity:1"
         offset="1" />
    </linearGradient>
    <linearGradient
       inkscape:collect="always"
       xlink:href="#linearGradient3587-6-5-3"
       id="linearGradient2388"
       gradientUnits="userSpaceOnUse"
       gradientTransform="matrix(0.4100229,0,0,0.5447147,-32.845583,-0.598916)"
       x1="99.624245"
       y1="8.4432774"
       x2="99.624245"
       y2="34.187016" />
  </defs>
  <path
     style="opacity:0.6;fill:#ffffff;fill-opacity:1;fill-rule:nonzero;stroke:none;stroke-width:1;marker:none;visibility:visible;display:inline;overflow:visible;enable-background:accumulate"
     id="path3227"
     d="m 12.503923,4.9878146 c -1.635944,-0.019725 -3.1176261,1.0788679 -3.8437501,2.5 -0.842583,-0.5307151 -1.9304127,-0.6586587 -2.84375,-0.21875 -1.2927933,0.5300874 -2.1051758,2.0434292 -1.71875,3.4062504 -1.9031723,1.147329 -2.652783,3.771312 -1.65625,5.75 0.7664987,1.660228 2.6257985,2.700174 4.4375,2.5625 2.993381,-0.0085 5.9759001,-0.0011 8.9687501,-0.03125 2.193627,-0.117406 4.094928,-2.055612 4.15625,-4.25 0.133874,-1.947804 -1.176222,-3.86069 -3.03125,-4.46875 0.225565,-2.3578958 -1.4848,-4.8920222 -3.90625,-5.2187504 -0.18966,-0.026806 -0.370955,-0.031261 -0.5625,-0.03125 z m -1.5,4 c 1.482632,0 2.412772,0.5582912 3,1.2500004 l 0,-1.2500004 1,0 0,2.0000004 0,1 -1,0 -2,0 0,-1 1.3125,0 c -0.435352,-0.556717 -1.142452,-1.0000002 -2.3125,-1.0000002 -3.0000001,0 -3.0000001,3.0000002 -3.0000001,3.0000002 l -1,0 c 0,0 0,-4.0000008 4.0000001,-4.0000004 z m 3,4.0000004 1,0 c 0,0 0,4 -4,4 -1.4826321,0 -2.4127718,-0.558291 -3.0000001,-1.25 l 0,1.25 -1,0 0,-2 0,-1 1,0 2.0000001,0 0,1 -1.3125001,0 c 0.435352,0.556717 1.142452,1 2.3125001,1 3,0 3,-3 3,-3 z"
     inkscape:connector-curvature="0" />
  <path
     style="opacity:0.7;fill:url(#linearGradient2388);fill-opacity:1;fill-rule:nonzero;stroke:none;stroke-width:1;marker:none;visibility:visible;display:inline;overflow:visible;enable-background:accumulate"
     id="rect3193"
     d="m 12.503923,3.9999998 c -1.635944,-0.019725 -3.1176261,1.0788679 -3.8437501,2.5 -0.842583,-0.5307151 -1.9304127,-0.6586587 -2.84375,-0.21875 -1.2927933,0.5300874 -2.1051758,2.0434287 -1.71875,3.40625 -1.9031723,1.1473292 -2.652783,3.7713122 -1.65625,5.7500002 0.7664987,1.660228 2.6257985,2.700174 4.4375,2.5625 2.993381,-0.0085 5.9759001,-0.0011 8.9687501,-0.03125 2.193627,-0.117406 4.094928,-2.055612 4.15625,-4.25 0.133874,-1.947804 -1.176222,-3.8606902 -3.03125,-4.4687502 0.225565,-2.3578954 -1.4848,-4.8920218 -3.90625,-5.21875 -0.18966,-0.026806 -0.370955,-0.031261 -0.5625,-0.03125 z m -1.5,4 c 1.482632,0 2.412772,0.5582915 3,1.25 l 0,-1.25 1,0 0,2 0,1.0000002 -1,0 -2,0 0,-1.0000002 1.3125,0 c -0.435352,-0.556717 -1.142452,-1 -2.3125,-1 C 8.0039229,8.9999998 8.0039229,12 8.0039229,12 l -1,0 c 0,0 0,-4.0000006 4.0000001,-4.0000002 z m 3,4.0000002 1,0 c 0,0 0,4 -4,4 -1.4826321,0 -2.4127718,-0.558291 -3.0000001,-1.25 l 0,1.25 -1,0 0,-2 0,-1 1,0 2.0000001,0 0,1 -1.3125001,0 c 0.435352,0.556717 1.142452,1 2.3125001,1 3,0 3,-3 3,-3 z"
     inkscape:connector-curvature="0" />
</svg>

<?xml version="1.0" encoding="UTF-8" standalone="no"?>
<!-- Created with Inkscape (http://www.inkscape.org/) -->
<svg
   xmlns:dc="http://purl.org/dc/elements/1.1/"
   xmlns:cc="http://creativecommons.org/ns#"
   xmlns:rdf="http://www.w3.org/1999/02/22-rdf-syntax-ns#"
   xmlns:svg="http://www.w3.org/2000/svg"
   xmlns="http://www.w3.org/2000/svg"
   xmlns:xlink="http://www.w3.org/1999/xlink"
   xmlns:sodipodi="http://sodipodi.sourceforge.net/DTD/sodipodi-0.dtd"
   xmlns:inkscape="http://www.inkscape.org/namespaces/inkscape"
   version="1.0"
   width="22"
   height="22"
   id="svg3231"
   sodipodi:version="0.32"
   inkscape:version="0.46"
   sodipodi:docname="ubuntuone-client-updating.svg"
   inkscape:output_extension="org.inkscape.output.svg.inkscape">
  <metadata
     id="metadata12">
    <rdf:RDF>
      <cc:Work
         rdf:about="">
        <dc:format>image/svg+xml</dc:format>
        <dc:type
           rdf:resource="http://purl.org/dc/dcmitype/StillImage" />
      </cc:Work>
    </rdf:RDF>
  </metadata>
  <sodipodi:namedview
     inkscape:window-height="706"
     inkscape:window-width="640"
     inkscape:pageshadow="2"
     inkscape:pageopacity="0.0"
     guidetolerance="10.0"
     gridtolerance="10.0"
     objecttolerance="10.0"
     borderopacity="1.0"
     bordercolor="#666666"
     pagecolor="#ffffff"
     id="base"
     showgrid="false"
     inkscape:zoom="10.375"
     inkscape:cx="4.5301205"
     inkscape:cy="12"
     inkscape:window-x="399"
     inkscape:window-y="51"
     inkscape:current-layer="svg3231" />
  <defs
     id="defs3233">
    <inkscape:perspective
       sodipodi:type="inkscape:persp3d"
       inkscape:vp_x="0 : 12 : 1"
       inkscape:vp_y="0 : 1000 : 0"
       inkscape:vp_z="24 : 12 : 1"
       inkscape:persp3d-origin="12 : 8 : 1"
       id="perspective14" />
    <linearGradient
       id="linearGradient3587-6-5-3">
      <stop
         id="stop3589-9-2-2"
         style="stop-color:#000000;stop-opacity:1"
         offset="0" />
      <stop
         id="stop3591-7-4-73"
         style="stop-color:#363636;stop-opacity:1"
         offset="1" />
    </linearGradient>
    <linearGradient
       x1="99.624245"
       y1="8.4432774"
       x2="99.624245"
       y2="34.187016"
       id="linearGradient3224"
       xlink:href="#linearGradient3587-6-5-3"
       gradientUnits="userSpaceOnUse"
       gradientTransform="matrix(0.4100229,0,0,0.5447147,-31.849506,0.4010842)" />
    <linearGradient
       inkscape:collect="always"
       xlink:href="#linearGradient3587-6-5-3"
       id="linearGradient2388"
       gradientUnits="userSpaceOnUse"
       gradientTransform="matrix(0.4100229,0,0,0.5447147,-32.849583,-0.598916)"
       x1="99.624245"
       y1="8.4432774"
       x2="99.624245"
       y2="34.187016" />
  </defs>
  <path
     style="opacity:0.6;fill:#ffffff;fill-opacity:1;fill-rule:nonzero;stroke:none;stroke-width:1;stroke-linecap:butt;stroke-linejoin:miter;marker:none;marker-start:none;marker-mid:none;marker-end:none;stroke-miterlimit:4;stroke-dasharray:none;stroke-dashoffset:0;stroke-opacity:1;visibility:visible;display:inline;overflow:visible;enable-background:accumulate"
     id="path3227"
     d="M 12.499923,4.9878146 C 10.863979,4.96809 9.3822969,6.0666825 8.6561729,7.4878146 C 7.8135899,6.9570995 6.7257602,6.8291559 5.8124229,7.2690646 C 4.5196296,7.799152 3.7072471,9.3124938 4.0936729,10.675315 C 2.1905006,11.822644 1.4408899,14.446627 2.4374229,16.425315 C 3.2039216,18.085543 5.0632214,19.125489 6.8749229,18.987815 C 9.8683039,18.979348 12.850823,18.986719 15.843673,18.956565 C 18.0373,18.839159 19.938601,16.900953 19.999923,14.706565 C 20.133797,12.758761 18.823701,10.845875 16.968673,10.237815 C 17.194238,7.8799192 15.483873,5.3457928 13.062423,5.0190646 C 12.872763,4.9922588 12.691468,4.9878036 12.499923,4.9878146 z M 10.999923,8.9878146 C 12.482555,8.9878146 13.412695,9.5461058 13.999923,10.237815 L 13.999923,8.9878146 L 14.999923,8.9878146 L 14.999923,10.987815 L 14.999923,11.987815 L 13.999923,11.987815 L 11.999923,11.987815 L 11.999923,10.987815 L 13.312423,10.987815 C 12.877071,10.431098 12.169971,9.9878148 10.999923,9.9878148 C 7.9999229,9.9878148 7.9999229,12.987815 7.9999229,12.987815 L 6.9999229,12.987815 C 6.9999229,12.987815 6.9999229,8.9878142 10.999923,8.9878146 z M 13.999923,12.987815 L 14.999923,12.987815 C 14.999923,12.987815 14.999923,16.987815 10.999923,16.987815 C 9.5172909,16.987815 8.5871512,16.429524 7.9999229,15.737815 L 7.9999229,16.987815 L 6.9999229,16.987815 L 6.9999229,14.987815 L 6.9999229,13.987815 L 7.9999229,13.987815 L 9.9999229,13.987815 L 9.9999229,14.987815 L 8.6874229,14.987815 C 9.1227749,15.544532 9.8298749,15.987815 10.999923,15.987815 C 13.999923,15.987815 13.999923,12.987815 13.999923,12.987815 z" />
  <path
     style="opacity:0.7;fill:url(#linearGradient2388);fill-opacity:1;fill-rule:nonzero;stroke:none;stroke-width:1;stroke-linecap:butt;stroke-linejoin:miter;marker:none;marker-start:none;marker-mid:none;marker-end:none;stroke-miterlimit:4;stroke-dasharray:none;stroke-dashoffset:0;stroke-opacity:1;visibility:visible;display:inline;overflow:visible;enable-background:accumulate"
     id="rect3193"
     d="M 12.499923,3.9999998 C 10.863979,3.9802752 9.3822969,5.0788677 8.6561729,6.4999998 C 7.8135899,5.9692847 6.7257602,5.8413411 5.8124229,6.2812498 C 4.5196296,6.8113372 3.7072471,8.3246785 4.0936729,9.6874998 C 2.1905006,10.834829 1.4408899,13.458812 2.4374229,15.4375 C 3.2039216,17.097728 5.0632214,18.137674 6.8749229,18 C 9.8683039,17.991533 12.850823,17.998904 15.843673,17.96875 C 18.0373,17.851344 19.938601,15.913138 19.999923,13.71875 C 20.133797,11.770946 18.823701,9.8580598 16.968673,9.2499998 C 17.194238,6.8921044 15.483873,4.357978 13.062423,4.0312498 C 12.872763,4.004444 12.691468,3.9999888 12.499923,3.9999998 z M 10.999923,7.9999998 C 12.482555,7.9999998 13.412695,8.5582913 13.999923,9.2499998 L 13.999923,7.9999998 L 14.999923,7.9999998 L 14.999923,9.9999998 L 14.999923,11 L 13.999923,11 L 11.999923,11 L 11.999923,9.9999998 L 13.312423,9.9999998 C 12.877071,9.4432828 12.169971,8.9999998 10.999923,8.9999998 C 7.9999229,8.9999998 7.9999229,12 7.9999229,12 L 6.9999229,12 C 6.9999229,12 6.9999229,7.9999994 10.999923,7.9999998 z M 13.999923,12 L 14.999923,12 C 14.999923,12 14.999923,16 10.999923,16 C 9.5172909,16 8.5871512,15.441709 7.9999229,14.75 L 7.9999229,16 L 6.9999229,16 L 6.9999229,14 L 6.9999229,13 L 7.9999229,13 L 9.9999229,13 L 9.9999229,14 L 8.6874229,14 C 9.1227749,14.556717 9.8298749,15 10.999923,15 C 13.999923,15 13.999923,12 13.999923,12 z" />
</svg>
